packages/web-icons/svgs/close_1.svg

<svg viewBox="0 0 48 48" xmlns="http://www.w3.org/2000/svg" class="ridi_icon"><path d="M47.6 38.6L33 24 47.6 9.4c.2-.2.3-.3.3-.5.2-.5.1-1.2-.3-1.6L40.7.4c-.4-.4-1.1-.5-1.6-.3-.2.1-.4.2-.5.3L24 15 9.4.4C9.3.3 9.1.2 8.9.1 8.4-.1 7.7 0 7.3.4L.4 7.3C0 7.7-.1 8.4.1 8.9c.1.2.2.4.3.5L15 24 .4 38.6c-.2.2-.3.3-.3.5-.2.5-.1 1.2.3 1.6l6.9 6.9c.4.4 1.1.5 1.6.3.2-.1.4-.2.5-.3L24 33l14.6 14.6c.2.2.3.3.5.3.5.2 1.2.1 1.6-.3l6.9-6.9c.4-.4.5-1.1.3-1.6-.1-.2-.2-.4-.3-.5z"/></svg>

<?xml version="1.0" encoding="UTF-8"?>
<svg width="48px" height="48px" viewBox="0 0 48 48" version="1.1" xmlns="http://www.w3.org/2000/svg">
  <!-- Generator: Sketch 41.2 (35397) - http://www.bohemiancoding.com/sketch -->
  <title>close_1</title>
  <desc>Created with Sketch.</desc>
  <defs></defs>
  <g id="Page-1" stroke="none" stroke-width="1" fill="none" fill-rule="evenodd">
    <g id="close_1" fill="#000000">
      <g id="레이어_1">
        <path d="M47.6,38.6 L47.6,38.6 L33,24 L47.6,9.4 L47.6,9.4 C47.8,9.2 47.9,9.1 47.9,8.9 C48.1,8.4 48,7.7 47.6,7.3 L40.7,0.4 C40.3,7.77156117e-16 39.6,-0.1 39.1,0.1 C38.9,0.2 38.7,0.3 38.6,0.4 L38.6,0.4 L24,15 L9.4,0.4 L9.4,0.4 C9.3,0.3 9.1,0.2 8.9,0.1 C8.4,-0.1 7.7,7.77156117e-16 7.3,0.4 L0.4,7.3 C-5.55111512e-17,7.7 -0.1,8.4 0.1,8.9 C0.2,9.1 0.3,9.3 0.4,9.4 L0.4,9.4 L15,24 L0.4,38.6 L0.4,38.6 C0.2,38.8 0.1,38.9 0.1,39.1 C-0.1,39.6 8.32667268e-16,40.3 0.4,40.7 L7.3,47.6 C7.7,48 8.4,48.1 8.9,47.9 C9.1,47.8 9.3,47.7 9.4,47.6 L9.4,47.6 L24,33 L38.6,47.6 L38.6,47.6 C38.8,47.8 38.9,47.9 39.1,47.9 C39.6,48.1 40.3,48 40.7,47.6 L47.6,40.7 C48,40.3 48.1,39.6 47.9,39.1 C47.8,38.9 47.7,38.7 47.6,38.6 Z" id="Shape"></path>
      </g>
    </g>
  </g>
</svg>
